data/playwrite-ca.svg

<svg width="103.05" height="26.922" viewBox="0 0 103.05 26.922" xmlns="http://www.w3.org/2000/svg"><path transform="translate(0 19.922) scale(.014 -.014)" d="m465 376q-18-1-26 9.5t-5 32.5q2 19 10.5 29t22.5 11q100 8 180.5 39t138 80.5 88 111.5 30.5 131q0 53-24.5 80.5t-71.5 27.5q-41 0-86-21t-90-60.5-87.5-94-79-121-63.5-140.5l-154-477q-4-14-16-21t-35-7q-22 0-33 7t-6 23l258 791q-25-24-53-47t-58-45.5-64-46.5q-21-13-35-8.5t-25 22.5q-10 16-8 30.5t21 25.5q59 38 109.5 76t92 80 72.5 88q12 17 21.5 23t32.5 6q22 0 32.5-7t5.5-23l-52-164q46 62 97 105.5t105.5 66 108.5 22.5q55 0 94-22t60.5-61.5 21.5-94.5q0-94-39.5-174.5t-110.5-141.5-168-97.5-212-43.5z"/><path transform="translate(11.928 19.922) scale(.014 -.014)" d="m-184-17q-19 0-24.5 11.5t-1.5 26 16 26 28 11.5q23 0 59.5 18.5t82 52.5 96 79.5 102.5 99.5 101.5 113 92 120 75 121.5 51.5 115.5 19 102q0 15 12.5 22.5t29 7.5 29-7.5 12.5-22.5q0-49-20-108.5t-56.5-124-84.5-131.5-103.5-132-114.5-124.5-117-110-111-88-97.5-58-75.5-20.5zm330 2q-37 0-54 16.5t-20 41.5 3 53 13 52l210 644q38 117 83 170t109 53q32 0 56-17t37-47 13-71q0-19-12.5-28t-29-9-29 9-12.5 28q0 17-3 29t-10 19-21 7q-16 0-31-13.5t-31.5-49-37.5-100.5l-218-669q-5-18-6-27t2.5-12 8.5-3q10 0 21 6.5t23 19 26 29.5q8 10 16 11.5t19-6.5q17-10 20-20t-2-20q-9-15-29-38t-48.5-40.5-65.5-17.5z"/><path transform="translate(17.444 19.922) scale(.014 -.014)" d="m148-17q-34 0-59.5 18t-39.5 51-14 78q0 46 14 99t42 104 68.5 93 92.5 67.5 116 25.5q28 0 60-7.5t62-21.5l1 4q5 14 15 17.5t27 3.5q31 0 39.5-9.5t1.5-29.5l-125-373q-6-18-6.5-27t3.5-12 9-3q10 0 20.5 6.5t23 19 26.5 29.5q8 10 16 11.5t19-6.5q16-10 19.5-20t-1.5-20q-9-15-29-38t-48.5-40.5-65.5-17.5-54.5 16.5-20.5 41.5 2.5 53 13.5 52q2 2 2.5 4.5t1.5 5.5q-42-59-82.5-98t-78-58-71.5-19zm-22 163q0-25 6-44t17.5-29 26.5-10q35 0 80 37.5t95.5 109.5 103.5 176l11 33q-32 13-60.5 17t-51.5 4q-43 0-79-20t-63.5-52.5-46.5-72-29-78.5-10-71z"/><path transform="translate(26.152 19.922) scale(.014 -.014)" d="m431 11q20 14 39.5 27t38 24.5 35 22 30.5 17.5q16 8 25.5 2t13-19 0-26.5-14.5-19.5q-19-12-40.5-26t-44.5-29-46-31-47-33zm-295-526q-53 0-86 29.5t-33 75.5q0 36 13 70t39 68.5 65.5 71 91.5 75.5q26 19 49.5 36t47.5 33.5 50 33.5l67 211q-31-49-63.5-87t-66-64-67.5-39.5-69-13.5q-46 0-71.5 22.5t-28 67 19.5 108.5l80 237q3 10 0 17t-13 7q-9 0-21-6t-28-20.5-39-39.5q-13-14-23.5-16t-25.5 9q-19 14-16 26t11 22q23 28 46.5 50.5t52 36 65.5 13.5 54.5-13.5 22-35 0.5-45.5-11-44l-75-221q-9-25-11.5-47t7-35 36.5-13q35 0 76 30t84.5 84 85.5 127.5 78 161.5l5 15q7 20 16.5 26t28.5 6q31 0 39.5-9.5t1.5-29.5l-235-722q-23-72-48-123t-54.5-83.5-66-47.5-81.5-15zm15 77q30 0 56 20t49.5 63 44.5 112l36 111q-13-9-27.5-19t-28.5-19.5-28-20.5q-40-33-68-61t-45.5-53-26-47-8.5-43q0-13 5-22.5t16-15 25-5.5z"/><path transform="translate(35.462 19.922) scale(.014 -.014)" d="m193-19q-45 0-70 19t-33.5 52-4 74 19.5 84l69 210q3 10 0 17t-13 7q-9 0-21-6t-28-20.5-39-39.5q-13-14-23.5-16t-25.5 9q-19 14-16 26t11 22q23 28 46.5 50.5t52 36 65.5 13.5 54.5-13.5 21.5-35 0-45.5-10-44l-63-193q-10-34-14.5-63t5-46.5 39.5-17.5 61.5 22.5 60.5 59.5 54 82 42 89l55 170q5 15 13.5 23.5t31.5 8.5q33 0 38.5-9.5t0.5-28.5l-85-277q-5-15-9.5-38.5t-3-47 13-39 39.5-15.5q33 0 65.5 21.5t60.5 57.5 49.5 80 34 91 12.5 89q0 8 0 18.5t-1 22.5-3 24q-3 18 0.5 30t13 18 24.5 6q19 0 30.5-11t16.5-37q2-8 3-17.5t1-19 0-19.5q0-55-16-114.5t-45.5-116.5-70.5-103-91-73-107-27q-47 0-74 19t-37.5 49.5-9.5 65.5q-26-40-55.5-70.5t-63-47-72.5-16.5z"/><path transform="translate(47.894 19.922) scale(.014 -.014)" d="m-181-17q-19 0-25.5 11.5t-3.5 26 15 26 31 11.5q35 0 73 21t81 66 91 118 103 177l55-27q-60-121-113-203.5t-103.5-132.5-100.5-72-103-22zm561 2q-37 0-55 14.5t-22 36.5 0 46 11 43q6 17 17.5 46.5t26 65.5 28 72 22.5 66q8 30 3.5 41.5t-25.5 11.5q-23 0-49-9.5t-54-19-59-9.5q-18 0-31 15t-20.5 38.5-7.5 49.5q0 21 7 39.5t22.5 30.5 39.5 12q20 0 32-13t12-33q0-13-3.5-28.5t-10.5-31.5q10 0 36 11t60.5 22 69.5 11q31 0 49.5-15t22.5-45.5-9-79.5q-7-28-21-65t-29-76-28.5-73-20.5-55q-10-28-5-35.5t14-7.5q10 0 20.5 6.5t22 19 24.5 29.5q8 10 15.5 11.5t19.5-6.5q16-10 19.5-20t-1.5-20q-9-15-29-38t-48.5-40.5-65.5-17.5z"/><path transform="translate(55.846 19.922) scale(.014 -.014)" d="m119-15q-56 0-70 44.5t14 129.5l106 324q7 20 16.5 26t28.5 6q31 0 39.5-9.5t1.5-29.5l-122-373q-7-21-5-31.5t15-10.5q9 0 18 6t20.5 18 27.5 31q8 10 16 11.5t19-6.5q16-10 19.5-20t-2.5-20q-21-33-43.5-54.5t-47-31.5-51.5-10zm157 684q-20 0-34 13t-14 38q0 27 17.5 51t54.5 24q21 0 35-12.5t14-38.5q0-27-17.5-51t-55.5-24z"/><path transform="translate(60.046 19.922) scale(.014 -.014)" d="m154-15q-40 0-63 18.5t-27 55 14 89.5l88 272h-76q-11 0-15 10t1 30q6 20 16 30t21 10h80l65 198q6 20 15.5 26t29.5 6q31 0 39.5-9.5t1.5-29.5l-64-191h126q11 0 15.5-9.5t-1.5-30.5q-5-19-15-29.5t-21-10.5h-130l-98-295q-11-34-6.5-49t23.5-15q20 0 47.5 17.5t55.5 54.5q9 10 18.5 11t23.5-8q15-9 17-18.5t-2-17.5q-11-20-36-47t-61-47.5-82-20.5z"/><path transform="translate(65.478 19.922) scale(.014 -.014)" d="m231-17q-37 0-66 11.5t-51 31.5-36.5 47.5-22 59.5-7.5 66q0 37 8 80t25.5 85.5 45.5 77.5 67 56 91 21q30 0 55-12.5t39.5-36 14.5-56.5q0-45-28.5-94.5t-75.5-98-105-90.5q-58-43-120.5-76.5t-120-52.5-101.5-19q-14 0-21 11.5t-5.5 26 12.5 26 32 11.5q32 0 79.5 17.5t101 47.5 102.5 67q45 33 81 68t57.5 69 21.5 63q0 23-10 36t-30 13q-31 0-55-24.5t-40.5-61.5-24.5-78-8-74q0-28 7-53t21-44 35.5-30 50.5-11q31 0 60.5 13.5t57 36 51.5 48.5q12 14 28 10t26-15 11.5-23-10.5-27q-38-48-78.5-74.5t-82-37.5-82.5-11z"/><path transform="translate(75.894 19.922) scale(.014 -.014)" d="m461-19q-74 0-132 24t-99 70-62 112-21 150q0 72 17 148.5t50 152 81.5 142.5 112 119.5 141.5 82 170 29.5q64 0 113.5-13.5t87.5-40 64-65.5q9-12 4-21t-20-20q-13-10-23-10.5t-24 13.5q-35 34-86 53t-130 19q-68 0-128-24.5t-112-68-93.5-99.5-70.5-120.5-44.5-131.5-15.5-130q0-71 13.5-124.5t42-89.5 73-54 106.5-18q40 0 78 12.5t75 37 74 60 76 82.5q12 13 23.5 8.5t23.5-15.5q13-13 14.5-23.5t-9.5-25.5q-67-87-132.5-135t-126-67-111.5-19z"/><path transform="translate(87.892 19.922) scale(.014 -.014)" d="m350-17q-50 0-91.5 20t-71.5 57-46 89-16 117q0 94 24.5 185.5t68.5 175 104 153.5 131 122 150 80.5 161 28.5q49 0 92.5-10.5t79.5-30.5 63-50l21 64q5 14 16.5 20.5t32.5 6.5q23 0 34-7t5-23l-262-797q-10-31-15-53t-5-36 5-20.5 16-6.5q13 0 28 10t35.5 33.5 48.5 61.5q11 17 23 18.5t25-7.5q17-11 19.5-25.5t-7.5-28.5q-15-23-36.5-48.5t-47-48-53-36.5-57.5-14q-42 0-64.5 22.5t-23 69.5 23.5 120l47 146q-58-89-117-155.5t-117-111.5-114-68-110-23zm-133 280q0-49 11.5-85.5t32.5-61 47.5-36.5 58.5-12q46 0 96 23.5t103.5 69.5 109 113 112.5 154 113 193l69 212q-33 47-86.5 70t-133.5 23q-67 0-132.5-26.5t-125-74.5-110-111.5-87.5-137.5-57.5-153.5-20.5-159.5z"/></svg>

<?xml version="1.0" encoding="utf-8" ?>
<svg baseProfile="tiny" height="100%" version="1.2" width="100%" xmlns="http://www.w3.org/2000/svg" xmlns:ev="http://www.w3.org/2001/xml-events" xmlns:xlink="http://www.w3.org/1999/xlink"><defs /><g><path d="M465 376Q447 375 439.0 385.5Q431 396 434 418Q436 437 444.5 447.0Q453 457 467 458Q567 466 647.5 497.0Q728 528 785.5 577.5Q843 627 873.5 689.0Q904 751 904 820Q904 873 879.5 900.5Q855 928 808 928Q767 928 722.0 907.0Q677 886 632.0 846.5Q587 807 544.5 752.5Q502 698 465.5 631.5Q429 565 402 491L248 14Q244 0 232.0 -7.0Q220 -14 197 -14Q175 -14 164.0 -7.0Q153 0 158 16L416 807Q391 783 363.0 760.0Q335 737 305.0 714.5Q275 692 241 668Q220 655 206.0 659.5Q192 664 181 682Q171 698 173.0 712.5Q175 727 194 738Q253 776 303.5 814.0Q354 852 395.5 894.0Q437 936 468 982Q480 999 489.5 1005.0Q499 1011 522 1011Q544 1011 554.5 1004.0Q565 997 560 981L508 817Q554 879 605.0 922.5Q656 966 710.5 988.5Q765 1011 819 1011Q874 1011 913.0 989.0Q952 967 973.5 927.5Q995 888 995 833Q995 739 955.5 658.5Q916 578 845.0 517.0Q774 456 677.0 419.5Q580 383 465 376Z" transform="translate(0.0, 72) scale(0.072, -0.072)" /><path d="M-184 -17Q-203 -17 -208.5 -5.5Q-214 6 -210.0 20.5Q-206 35 -194.0 46.5Q-182 58 -166 58Q-143 58 -106.5 76.5Q-70 95 -24.5 129.0Q21 163 71.5 208.5Q122 254 174.0 308.0Q226 362 275.5 421.0Q325 480 367.5 541.0Q410 602 442.5 662.5Q475 723 494.0 778.0Q513 833 513 880Q513 895 525.5 902.5Q538 910 554.5 910.0Q571 910 583.5 902.5Q596 895 596 880Q596 831 576.0 771.5Q556 712 519.5 647.5Q483 583 435.0 516.0Q387 449 331.5 384.0Q276 319 217.0 259.5Q158 200 100.0 149.5Q42 99 -11.0 61.5Q-64 24 -108.5 3.5Q-153 -17 -184 -17ZM146 -15Q109 -15 92.0 1.5Q75 18 72.0 43.0Q69 68 75.0 96.0Q81 124 88 148L298 792Q336 909 381.0 962.0Q426 1015 490 1015Q522 1015 546.0 998.0Q570 981 583.0 951.0Q596 921 596 880Q596 861 583.5 852.0Q571 843 554.5 843.0Q538 843 525.5 852.0Q513 861 513 880Q513 897 510.0 909.0Q507 921 500.0 928.0Q493 935 479 935Q463 935 448.0 921.5Q433 908 416.5 872.5Q400 837 379 772L161 103Q156 85 155.0 76.0Q154 67 157.5 64.0Q161 61 166 61Q176 61 187.0 67.5Q198 74 210.0 86.5Q222 99 236 116Q244 126 252.0 127.5Q260 129 271 121Q288 111 291.0 101.0Q294 91 289 81Q280 66 260.0 43.0Q240 20 211.5 2.5Q183 -15 146 -15Z" transform="translate(61.343999999999994, 72) scale(0.072, -0.072)" /><path d="M148 -17Q114 -17 88.5 1.0Q63 19 49.0 52.0Q35 85 35 130Q35 176 49.0 229.0Q63 282 91.0 333.0Q119 384 159.5 426.0Q200 468 252.0 493.5Q304 519 368 519Q396 519 428.0 511.5Q460 504 490 490L491 494Q496 508 506.0 511.5Q516 515 533 515Q564 515 572.5 505.5Q581 496 574 476L449 103Q443 85 442.5 76.0Q442 67 446.0 64.0Q450 61 455 61Q465 61 475.5 67.5Q486 74 498.5 86.5Q511 99 525 116Q533 126 541.0 127.5Q549 129 560 121Q576 111 579.5 101.0Q583 91 578 81Q569 66 549.0 43.0Q529 20 500.5 2.5Q472 -15 435 -15Q398 -15 380.5 1.5Q363 18 360.0 43.0Q357 68 362.5 96.0Q368 124 376 148Q378 150 378.5 152.5Q379 155 380 158Q338 99 297.5 60.0Q257 21 219.5 2.0Q182 -17 148 -17ZM126 146Q126 121 132.0 102.0Q138 83 149.5 73.0Q161 63 176 63Q211 63 256.0 100.5Q301 138 351.5 210.0Q402 282 455 386L466 419Q434 432 405.5 436.0Q377 440 354 440Q311 440 275.0 420.0Q239 400 211.5 367.5Q184 335 165.0 295.5Q146 256 136.0 217.0Q126 178 126 146Z" transform="translate(89.71199999999999, 72) scale(0.072, -0.072)" /><path d="M431 11Q451 25 470.5 38.0Q490 51 508.5 62.5Q527 74 543.5 84.5Q560 95 574 102Q590 110 599.5 104.0Q609 98 612.5 85.0Q616 72 612.5 58.5Q609 45 598 39Q579 27 557.5 13.0Q536 -1 513.0 -16.0Q490 -31 467.0 -47.0Q444 -63 420 -80ZM136 -515Q83 -515 50.0 -485.5Q17 -456 17 -410Q17 -374 30.0 -340.0Q43 -306 69.0 -271.5Q95 -237 134.5 -200.5Q174 -164 226 -125Q252 -106 275.5 -89.0Q299 -72 323.0 -55.5Q347 -39 373 -22L440 189Q409 140 376.5 102.0Q344 64 310.5 38.0Q277 12 243.0 -1.5Q209 -15 174 -15Q128 -15 102.5 7.5Q77 30 74.5 74.5Q72 119 94 183L174 420Q177 430 174.0 437.0Q171 444 161 444Q152 444 140.0 438.0Q128 432 112.0 417.5Q96 403 73 378Q60 364 49.5 362.0Q39 360 24 371Q5 385 8.0 397.0Q11 409 19 419Q42 447 65.5 469.5Q89 492 117.5 505.5Q146 519 183 519Q220 519 237.5 505.5Q255 492 259.5 470.5Q264 449 260.0 425.0Q256 401 249 381L174 160Q165 135 162.5 113.0Q160 91 169.5 78.0Q179 65 206 65Q241 65 282.0 95.0Q323 125 366.5 179.0Q410 233 452.0 306.5Q494 380 530 468L535 483Q542 503 551.5 509.0Q561 515 580 515Q611 515 619.5 505.5Q628 496 621 476L386 -246Q363 -318 338.0 -369.0Q313 -420 283.5 -452.5Q254 -485 217.5 -500.0Q181 -515 136 -515ZM151 -438Q181 -438 207.0 -418.0Q233 -398 256.5 -355.0Q280 -312 301 -243L337 -132Q324 -141 309.5 -151.0Q295 -161 281.0 -170.5Q267 -180 253 -191Q213 -224 185.0 -252.0Q157 -280 139.5 -305.0Q122 -330 113.5 -352.0Q105 -374 105 -395Q105 -408 110.0 -417.5Q115 -427 126.0 -432.5Q137 -438 151 -438Z" transform="translate(134.49599999999998, 72) scale(0.072, -0.072)" /><path d="M193 -19Q148 -19 123.0 0.0Q98 19 89.5 52.0Q81 85 85.5 126.0Q90 167 105 210L174 420Q177 430 174.0 437.0Q171 444 161 444Q152 444 140.0 438.0Q128 432 112.0 417.5Q96 403 73 378Q60 364 49.5 362.0Q39 360 24 371Q5 385 8.0 397.0Q11 409 19 419Q42 447 65.5 469.5Q89 492 117.5 505.5Q146 519 183 519Q220 519 237.5 505.5Q255 492 259.0 470.5Q263 449 259.0 425.0Q255 401 249 381L186 188Q176 154 171.5 125.0Q167 96 176.5 78.5Q186 61 216 61Q246 61 277.5 83.5Q309 106 338.0 143.0Q367 180 392.0 225.0Q417 270 434 314L489 484Q494 499 502.5 507.5Q511 516 534 516Q567 516 572.5 506.5Q578 497 573 478L488 201Q483 186 478.5 162.5Q474 139 475.5 115.5Q477 92 488.5 76.5Q500 61 528 61Q561 61 593.5 82.5Q626 104 654.0 140.0Q682 176 703.5 220.0Q725 264 737.5 311.0Q750 358 750 400Q750 408 750.0 418.5Q750 429 749.0 441.0Q748 453 746 465Q743 483 746.5 495.0Q750 507 759.5 513.0Q769 519 784 519Q803 519 814.5 508.0Q826 497 831 471Q833 463 834.0 453.5Q835 444 835.0 434.5Q835 425 835 415Q835 360 819.0 300.5Q803 241 773.5 184.0Q744 127 703.0 81.0Q662 35 612.0 8.0Q562 -19 505 -19Q458 -19 431.0 0.0Q404 19 393.5 49.5Q383 80 384 115Q358 75 328.5 44.5Q299 14 265.5 -2.5Q232 -19 193 -19Z" transform="translate(182.37599999999998, 72) scale(0.072, -0.072)" /><path d="M-181 -17Q-200 -17 -206.5 -5.5Q-213 6 -210.0 20.5Q-207 35 -195.0 46.5Q-183 58 -164 58Q-129 58 -91.0 79.0Q-53 100 -10.0 145.0Q33 190 81.0 263.0Q129 336 184 440L239 413Q179 292 126.0 209.5Q73 127 22.5 77.0Q-28 27 -78.0 5.0Q-128 -17 -181 -17ZM380 -15Q343 -15 325.0 -0.5Q307 14 303.0 36.0Q299 58 303.0 82.0Q307 106 314 125Q320 142 331.5 171.5Q343 201 357.5 237.0Q372 273 385.5 309.0Q399 345 408 375Q416 405 411.5 416.5Q407 428 386 428Q363 428 337.0 418.5Q311 409 283.0 399.5Q255 390 224 390Q206 390 193.0 405.0Q180 420 172.5 443.5Q165 467 165 493Q165 514 172.0 532.5Q179 551 194.5 563.0Q210 575 234 575Q254 575 266.0 562.0Q278 549 278 529Q278 516 274.5 500.5Q271 485 264 469Q274 469 300.0 480.0Q326 491 360.5 502.0Q395 513 430 513Q461 513 479.5 498.0Q498 483 502.0 452.5Q506 422 493 373Q486 345 472.0 308.0Q458 271 443.0 232.0Q428 193 414.5 159.0Q401 125 394 104Q384 76 389.0 68.5Q394 61 403 61Q413 61 423.5 67.5Q434 74 445.5 86.5Q457 99 470 116Q478 126 485.5 127.5Q493 129 505 121Q521 111 524.5 101.0Q528 91 523 81Q514 66 494.0 43.0Q474 20 445.5 2.5Q417 -15 380 -15Z" transform="translate(246.31199999999995, 72) scale(0.072, -0.072)" /><path d="M119 -15Q63 -15 49.0 29.5Q35 74 63 159L169 483Q176 503 185.5 509.0Q195 515 214 515Q245 515 253.5 505.5Q262 496 255 476L133 103Q126 82 128.0 71.5Q130 61 143 61Q152 61 161.0 67.0Q170 73 181.5 85.0Q193 97 209 116Q217 126 225.0 127.5Q233 129 244 121Q260 111 263.5 101.0Q267 91 261 81Q240 48 217.5 26.5Q195 5 170.5 -5.0Q146 -15 119 -15ZM276 669Q256 669 242.0 682.0Q228 695 228 720Q228 747 245.5 771.0Q263 795 300 795Q321 795 335.0 782.5Q349 770 349 744Q349 717 331.5 693.0Q314 669 276 669Z" transform="translate(287.20799999999997, 72) scale(0.072, -0.072)" /><path d="M154 -15Q114 -15 91.0 3.5Q68 22 64.0 58.5Q60 95 78 148L166 420H90Q79 420 75.0 430.0Q71 440 76 460Q82 480 92.0 490.0Q102 500 113 500H193L258 698Q264 718 273.5 724.0Q283 730 303 730Q334 730 342.5 720.5Q351 711 344 691L280 500H406Q417 500 421.5 490.5Q426 481 420 460Q415 441 405.0 430.5Q395 420 384 420H254L156 125Q145 91 149.5 76.0Q154 61 173 61Q193 61 220.5 78.5Q248 96 276 133Q285 143 294.5 144.0Q304 145 318 136Q333 127 335.0 117.5Q337 108 333 100Q322 80 297.0 53.0Q272 26 236.0 5.5Q200 -15 154 -15Z" transform="translate(308.808, 72) scale(0.072, -0.072)" /><path d="M231 -17Q194 -17 165.0 -5.5Q136 6 114.0 26.0Q92 46 77.5 73.5Q63 101 55.5 133.0Q48 165 48 199Q48 236 56.0 279.0Q64 322 81.5 364.5Q99 407 127.0 442.0Q155 477 194.0 498.0Q233 519 285 519Q315 519 340.0 506.5Q365 494 379.5 470.5Q394 447 394 414Q394 369 365.5 319.5Q337 270 290.0 221.5Q243 173 185 131Q127 88 64.5 54.5Q2 21 -55.5 2.0Q-113 -17 -157 -17Q-171 -17 -178.0 -5.5Q-185 6 -183.5 20.5Q-182 35 -171.0 46.5Q-160 58 -139 58Q-107 58 -59.5 75.5Q-12 93 41.5 123.0Q95 153 144 190Q189 223 225.0 258.0Q261 293 282.5 327.0Q304 361 304 390Q304 413 294.0 426.0Q284 439 264 439Q233 439 209.0 414.5Q185 390 168.5 353.0Q152 316 144.0 275.0Q136 234 136 201Q136 173 143.0 148.0Q150 123 164.0 104.0Q178 85 199.5 74.0Q221 63 250 63Q281 63 310.5 76.5Q340 90 367.5 112.5Q395 135 419 161Q431 175 447.0 171.0Q463 167 473 156Q483 145 484.5 133.0Q486 121 474 106Q436 58 395.5 31.5Q355 5 313.5 -6.0Q272 -17 231 -17Z" transform="translate(336.74399999999997, 72) scale(0.072, -0.072)" /><path d="M461 -19Q387 -19 329.0 5.0Q271 29 230.0 75.0Q189 121 168.0 187.0Q147 253 147 337Q147 409 164.0 485.5Q181 562 214.0 637.5Q247 713 295.5 780.0Q344 847 407.5 899.5Q471 952 549.0 981.5Q627 1011 719 1011Q783 1011 832.5 997.5Q882 984 920.0 957.5Q958 931 984 892Q993 880 988.0 871.0Q983 862 968 851Q955 841 945.0 840.5Q935 840 921 854Q886 888 835.0 907.0Q784 926 705 926Q637 926 577.0 901.5Q517 877 465.0 833.5Q413 790 371.5 734.0Q330 678 301.0 613.5Q272 549 256.5 482.0Q241 415 241 352Q241 281 254.5 227.5Q268 174 296.5 138.0Q325 102 369.5 84.0Q414 66 476 66Q516 66 554.0 78.5Q592 91 629.0 115.5Q666 140 703.0 175.5Q740 211 779 258Q791 271 802.5 266.5Q814 262 826 251Q839 238 840.5 227.5Q842 217 831 202Q764 115 698.5 67.0Q633 19 572.5 0.0Q512 -19 461 -19Z" transform="translate(390.312, 72) scale(0.072, -0.072)" /><path d="M350 -17Q300 -17 258.5 3.0Q217 23 187.0 60.0Q157 97 141.0 149.0Q125 201 125 266Q125 360 149.5 451.5Q174 543 218.0 626.5Q262 710 322.0 780.0Q382 850 453.0 902.0Q524 954 603.0 982.5Q682 1011 764 1011Q813 1011 856.5 1000.5Q900 990 936.0 970.0Q972 950 999 920L1020 984Q1025 998 1036.5 1004.5Q1048 1011 1069 1011Q1092 1011 1103.0 1004.0Q1114 997 1108 981L846 184Q836 153 831.0 131.0Q826 109 826.0 95.0Q826 81 831.0 74.5Q836 68 847 68Q860 68 875.0 78.0Q890 88 910.5 111.5Q931 135 959 173Q970 190 982.0 191.5Q994 193 1007 184Q1024 173 1026.5 158.5Q1029 144 1019 130Q1004 107 982.5 81.5Q961 56 935.5 33.5Q910 11 882.5 -3.0Q855 -17 825 -17Q783 -17 760.5 5.5Q738 28 737.5 75.0Q737 122 761 195L808 341Q750 252 691.0 185.5Q632 119 574.0 74.0Q516 29 460.0 6.0Q404 -17 350 -17ZM217 263Q217 214 228.5 177.5Q240 141 261.0 116.5Q282 92 308.5 80.0Q335 68 367 68Q413 68 463.0 91.5Q513 115 566.5 161.0Q620 207 675.5 274.0Q731 341 788.0 428.0Q845 515 901 621L970 833Q937 880 883.5 903.0Q830 926 750 926Q683 926 617.5 899.5Q552 873 492.5 825.0Q433 777 382.5 713.5Q332 650 295.0 576.0Q258 502 237.5 422.5Q217 343 217 263Z" transform="translate(452.016, 72) scale(0.072, -0.072)" /></g></svg>
